Sources/FrostedUI/Resources/Icons.xcassets/apps16.imageset/apps-16.svg

<svg width="16" height="16" viewBox="0 0 16 16" fill="none" xmlns="http://www.w3.org/2000/svg" data-fui-icon="true">
  <path
    d="M8.00024 0C8.4143 0.0001888 8.75024 0.335903 8.75024 0.75V2.09766C10.0436 2.43107 11.0002 3.60251 11.0002 5C11.0002 5.83057 10.6618 6.58178 10.1165 7.125L11.719 10.4062C11.9061 10.2848 12.0805 10.1605 12.2405 10.0352C12.7107 9.66651 13.0616 9.29773 13.2922 9.02441C13.4072 8.88813 13.4922 8.77598 13.5461 8.70117C13.5729 8.66397 13.5922 8.63533 13.6038 8.61816C13.6092 8.61 13.6136 8.60452 13.6155 8.60156V8.60059C13.8359 8.25043 14.2982 8.14521 14.6487 8.36523C14.9992 8.58552 15.105 9.04777 14.885 9.39844L14.2502 9C14.8637 9.38525 14.8845 9.39867 14.885 9.39941V9.40039L14.884 9.40137C14.8833 9.4025 14.8821 9.4047 14.8811 9.40625C14.8792 9.4093 14.8762 9.41348 14.8733 9.41797C14.8673 9.42719 14.8588 9.43924 14.8489 9.4541C14.8285 9.48445 14.8 9.52672 14.7629 9.57812C14.6888 9.68096 14.5806 9.82302 14.4387 9.99121C14.1553 10.3271 13.732 10.7712 13.1663 11.2148C12.9302 11.3999 12.6679 11.5843 12.3811 11.7617L13.9241 14.9209C14.1057 15.293 13.9513 15.742 13.5793 15.9238C13.2072 16.1056 12.7582 15.9512 12.5764 15.5791L11.0403 12.4346C10.176 12.773 9.16267 13 8.00024 13C6.83743 13 5.82372 12.7732 4.95923 12.4346L3.42407 15.5791C3.24234 15.9512 2.79328 16.1054 2.42114 15.9238C2.04896 15.7421 1.89465 15.2931 2.07642 14.9209L3.61841 11.7617C3.33189 11.5844 3.07006 11.3997 2.83423 11.2148C2.26843 10.7712 1.84526 10.3272 1.56177 9.99121C1.41986 9.82303 1.31166 9.68098 1.23755 9.57812C1.20052 9.52674 1.172 9.48447 1.15161 9.4541C1.14165 9.43925 1.1332 9.4272 1.1272 9.41797C1.12429 9.41349 1.12135 9.40932 1.11938 9.40625C1.11843 9.40475 1.1172 9.40256 1.11646 9.40137L1.11548 9.40039V9.39941C1.11852 9.3971 1.1621 9.36933 1.75024 9L1.11548 9.39844C0.8953 9.04767 1.00106 8.58549 1.35181 8.36523C1.70255 8.14526 2.16481 8.2509 2.38501 8.60156C2.38699 8.60457 2.39129 8.61005 2.39673 8.61816C2.40828 8.63537 2.42757 8.664 2.45435 8.70117C2.50827 8.77601 2.59327 8.88815 2.70825 9.02441C2.93894 9.29776 3.28983 9.66653 3.76001 10.0352C3.91976 10.1604 4.09362 10.285 4.28052 10.4062L5.88306 7.125C5.33787 6.5818 5.00024 5.83041 5.00024 5C5.00024 3.60239 5.95671 2.43095 7.25024 2.09766V0.75C7.25024 0.335786 7.58603 0 8.00024 0ZM8.81763 7.88379C8.55761 7.95734 8.28381 7.99997 8.00024 8C7.71635 8 7.44218 7.95748 7.18188 7.88379L5.62134 11.0791C6.3044 11.332 7.09599 11.5 8.00024 11.5C8.90411 11.5 9.69533 11.3319 10.3782 11.0791L8.81763 7.88379ZM8.00024 3.5C7.17182 3.5 6.50024 4.17157 6.50024 5C6.50024 5.82843 7.17182 6.5 8.00024 6.5C8.82851 6.49981 9.50024 5.82831 9.50024 5C9.50024 4.17169 8.82851 3.50019 8.00024 3.5Z"
    fill="currentColor"
  />
</svg>

<svg xmlns="http://www.w3.org/2000/svg" width="16" height="16" fill="none" data-fui-icon="true" viewBox="0 0 16 16"><path fill="currentColor" d="M8 0a.75.75 0 0 1 .75.75v1.348a2.999 2.999 0 0 1 1.367 5.027l1.602 3.281q.281-.182.522-.37a7.2 7.2 0 0 0 1.051-1.012c.115-.136.2-.248.254-.323l.058-.083.012-.016V8.6a.75.75 0 0 1 1.269.797L14.25 9c.614.385.634.399.635.4l-.001.001q0 .003-.003.005l-.008.012-.024.036q-.03.046-.086.124a7 7 0 0 1-.324.413 8.7 8.7 0 0 1-2.058 1.77l1.543 3.16a.75.75 0 0 1-1.348.658l-1.536-3.144A8.3 8.3 0 0 1 8 13a8.3 8.3 0 0 1-3.04-.565l-1.536 3.144a.75.75 0 0 1-1.348-.658l1.542-3.16a8.7 8.7 0 0 1-2.38-2.183l-.086-.124-.025-.036-.008-.012-.003-.005v-.002L1.75 9l-.635.398a.75.75 0 1 1 1.27-.796l.012.016q.016.026.057.083c.054.075.14.187.254.323a7.2 7.2 0 0 0 1.573 1.382l1.602-3.281A2.998 2.998 0 0 1 7.25 2.098V.75A.75.75 0 0 1 8 0m.818 7.884A3 3 0 0 1 8 8a3 3 0 0 1-.818-.116l-1.56 3.195A6.8 6.8 0 0 0 8 11.5c.904 0 1.695-.168 2.378-.42zM8 3.5a1.5 1.5 0 1 0 0 3 1.5 1.5 0 0 0 0-3"/></svg>
